X:29
T:Boys of Ballisodare, The
R:slip jig
E:12.5
I:speed 325
M:9/8
K:EDor
D2G G2A B2d|ege d2e g3|D2G G2B d2B|ABA B2G E3|\
D2G G2A B2d|ege d2e g2a|b2a g2e d2B|ABA B2G E3||\
B2d d2c d3|ded e2f g3|B2d d2B d2B|ABA B2G E3|\
B2d d2c d3|ded e2f g2a|b2a g2e d2B|ABA B2G E3||**
<end>
<start>
